X:182
T: ICH WOLLT EINMAL RECHT FRUEH AUFSTEHN
N: E0096C
O: Europa, Mitteleuropa, Deutschland, Schlesien, Hainau; Fraustadt
R: erzaehlendes Volks - Lied, Sage, Liebe, Leid, Tod
M: 3/4
L: 1/16
K: G
D2G2BA | G2D2B,2B2cBAG | A4z2
D2G2BA | G2D2B,2B2cBAG | A4z2
dcB2d2 | d2cBc2
cBA2c2 | c2BAB2
dcB2A2 | G3AB2
dcB2A2 | G4z2

